src/resources/assets/app-title.svg

<svg xmlns="http://www.w3.org/2000/svg" width="16" height="16"><path d="M 3.167969 13.667969 L 12.832031 13.667969 C 13.109375 13.667969 13.332031 13.890625 13.332031 14.167969 C 13.332031 14.417969 13.144531 14.628906 12.902344 14.664062 L 12.832031 14.667969 L 3.167969 14.667969 C 2.890625 14.667969 2.667969 14.441406 2.667969 14.167969 C 2.667969 13.914062 2.855469 13.703125 3.097656 13.671875 L 3.167969 13.667969 L 12.832031 13.667969 Z M 10.832031 2 C 12.214844 2 13.332031 3.121094 13.332031 4.5 L 13.332031 10.167969 C 13.332031 11.546875 12.214844 12.667969 10.832031 12.667969 L 5.167969 12.667969 C 3.785156 12.667969 2.667969 11.546875 2.667969 10.167969 L 2.667969 4.5 C 2.667969 3.121094 3.785156 2 5.167969 2 Z M 10.832031 3 L 5.167969 3 C 4.339844 3 3.667969 3.671875 3.667969 4.5 L 3.667969 10.167969 C 3.667969 10.996094 4.339844 11.667969 5.167969 11.667969 L 10.832031 11.667969 C 11.660156 11.667969 12.332031 10.996094 12.332031 10.167969 L 12.332031 4.5 C 12.332031 3.671875 11.660156 3 10.832031 3 Z M 10.832031 3" fill="#ddd"/></svg>

<svg xmlns="http://www.w3.org/2000/svg" width="16" height="16"><path d="M3.168 13.668h9.664c.277 0 .5.223.5.5 0 .25-.187.46-.43.496l-.07.004H3.168a.501.501 0 01-.07-.996l.07-.004h9.664zM10.832 2a2.5 2.5 0 012.5 2.5v5.668a2.5 2.5 0 01-2.5 2.5H5.168a2.5 2.5 0 01-2.5-2.5V4.5a2.5 2.5 0 012.5-2.5zm0 1H5.168a1.5 1.5 0 00-1.5 1.5v5.668a1.5 1.5 0 001.5 1.5h5.664a1.5 1.5 0 001.5-1.5V4.5a1.5 1.5 0 00-1.5-1.5zm0 0" fill="#ddd"/></svg>
